images/50564504.svg

<?xml version="1.0" encoding="UTF-8"?>
<svg xmlns="http://www.w3.org/2000/svg" xmlns:xlink="http://www.w3.org/1999/xlink" width="300pt" height="300pt" viewBox="0 0 300 300" version="1.1">
<defs>
<g>
<symbol overflow="visible" id="glyph0-0">
<path style="stroke:none;" d="M 0.453125 1.59375 L 0.453125 -6.34375 L 4.953125 -6.34375 L 4.953125 1.59375 Z M 0.953125 1.09375 L 4.453125 1.09375 L 4.453125 -5.84375 L 0.953125 -5.84375 Z M 0.953125 1.09375 "/>
</symbol>
<symbol overflow="visible" id="glyph0-1">
<path style="stroke:none;" d="M 0.890625 -6.5625 L 4.65625 -6.5625 L 4.65625 -5.8125 L 1.765625 -5.8125 L 1.765625 -3.875 L 4.375 -3.875 L 4.375 -3.140625 L 1.765625 -3.140625 L 1.765625 0 L 0.890625 0 Z M 0.890625 -6.5625 "/>
</symbol>
<symbol overflow="visible" id="glyph0-2">
<path style="stroke:none;" d="M 0.890625 -6.5625 L 2.078125 -6.5625 L 4.984375 -1.078125 L 4.984375 -6.5625 L 5.84375 -6.5625 L 5.84375 0 L 4.65625 0 L 1.75 -5.484375 L 1.75 0 L 0.890625 0 Z M 0.890625 -6.5625 "/>
</symbol>
<symbol overflow="visible" id="glyph0-3">
<path style="stroke:none;" d="M 3.546875 -5.953125 C 2.898438 -5.953125 2.382812 -5.710938 2 -5.234375 C 1.625 -4.753906 1.4375 -4.101562 1.4375 -3.28125 C 1.4375 -2.445312 1.625 -1.789062 2 -1.3125 C 2.382812 -0.832031 2.898438 -0.59375 3.546875 -0.59375 C 4.191406 -0.59375 4.703125 -0.832031 5.078125 -1.3125 C 5.453125 -1.789062 5.640625 -2.445312 5.640625 -3.28125 C 5.640625 -4.101562 5.453125 -4.753906 5.078125 -5.234375 C 4.703125 -5.710938 4.191406 -5.953125 3.546875 -5.953125 Z M 3.546875 -6.6875 C 4.460938 -6.6875 5.195312 -6.375 5.75 -5.75 C 6.300781 -5.132812 6.578125 -4.3125 6.578125 -3.28125 C 6.578125 -2.238281 6.300781 -1.410156 5.75 -0.796875 C 5.195312 -0.179688 4.460938 0.125 3.546875 0.125 C 2.617188 0.125 1.878906 -0.179688 1.328125 -0.796875 C 0.773438 -1.410156 0.5 -2.238281 0.5 -3.28125 C 0.5 -4.3125 0.773438 -5.132812 1.328125 -5.75 C 1.878906 -6.375 2.617188 -6.6875 3.546875 -6.6875 Z M 3.546875 -6.6875 "/>
</symbol>
<symbol overflow="visible" id="glyph0-4">
<path style="stroke:none;" d="M 0.890625 -6.5625 L 1.765625 -6.5625 L 1.765625 -3.875 L 5 -3.875 L 5 -6.5625 L 5.890625 -6.5625 L 5.890625 0 L 5 0 L 5 -3.125 L 1.765625 -3.125 L 1.765625 0 L 0.890625 0 Z M 0.890625 -6.5625 "/>
</symbol>
</g>
</defs>
<g id="surface20941">
<rect x="0" y="0" width="300" height="300" style="fill:rgb(100%,100%,100%);fill-opacity:1;stroke:none;"/>
<path style="fill:none;stroke-width:1.2;stroke-linecap:butt;stroke-linejoin:miter;stroke:rgb(20%,80%,80%);stroke-opacity:1;stroke-miterlimit:10;" d="M 101.269531 187.300781 L 90.265625 182.148438 "/>
<path style="fill:none;stroke-width:1.2;stroke-linecap:butt;stroke-linejoin:miter;stroke:rgb(0%,0%,0%);stroke-opacity:1;stroke-miterlimit:10;" d="M 90.265625 182.148438 L 79.261719 176.996094 "/>
<path style=" stroke:none;fill-rule:nonzero;fill:rgb(100%,100%,100%);fill-opacity:1;" d="M 98.269531 181.800781 L 104.269531 181.800781 L 104.269531 192.800781 L 98.269531 192.800781 Z M 98.269531 181.800781 "/>
<g style="fill:rgb(20%,80%,80%);fill-opacity:1;">
  <use xlink:href="#glyph0-1" x="98.269531" y="190.463867"/>
</g>
<path style="fill:none;stroke-width:1.2;stroke-linecap:butt;stroke-linejoin:miter;stroke:rgb(0%,0%,0%);stroke-opacity:1;stroke-miterlimit:10;" d="M 79.261719 176.996094 L 59.335938 190.902344 "/>
<path style="fill:none;stroke-width:1.2;stroke-linecap:butt;stroke-linejoin:miter;stroke:rgb(0%,0%,0%);stroke-opacity:1;stroke-miterlimit:10;" d="M 73.996094 173.699219 L 58.054688 184.824219 "/>
<path style="fill:none;stroke-width:1.2;stroke-linecap:butt;stroke-linejoin:miter;stroke:rgb(0%,0%,0%);stroke-opacity:1;stroke-miterlimit:10;" d="M 77.183594 152.789062 L 79.261719 176.996094 "/>
<path style="fill:none;stroke-width:1.2;stroke-linecap:butt;stroke-linejoin:miter;stroke:rgb(0%,0%,0%);stroke-opacity:1;stroke-miterlimit:10;" d="M 59.335938 190.902344 L 37.328125 180.601562 "/>
<path style="fill:none;stroke-width:1.2;stroke-linecap:butt;stroke-linejoin:miter;stroke:rgb(0%,0%,0%);stroke-opacity:1;stroke-miterlimit:10;" d="M 37.328125 180.601562 L 35.25 156.390625 "/>
<path style="fill:none;stroke-width:1.2;stroke-linecap:butt;stroke-linejoin:miter;stroke:rgb(0%,0%,0%);stroke-opacity:1;stroke-miterlimit:10;" d="M 42.816406 177.6875 L 41.15625 158.320312 "/>
<path style="fill:none;stroke-width:1.2;stroke-linecap:butt;stroke-linejoin:miter;stroke:rgb(0%,0%,0%);stroke-opacity:1;stroke-miterlimit:10;" d="M 35.25 156.390625 L 55.175781 142.484375 "/>
<path style="fill:none;stroke-width:1.2;stroke-linecap:butt;stroke-linejoin:miter;stroke:rgb(0%,0%,0%);stroke-opacity:1;stroke-miterlimit:10;" d="M 55.175781 142.484375 L 54.136719 130.378906 "/>
<path style="fill:none;stroke-width:1.2;stroke-linecap:butt;stroke-linejoin:miter;stroke:rgb(20%,80%,80%);stroke-opacity:1;stroke-miterlimit:10;" d="M 54.136719 130.378906 L 53.097656 118.273438 "/>
<path style="fill:none;stroke-width:1.2;stroke-linecap:butt;stroke-linejoin:miter;stroke:rgb(0%,0%,0%);stroke-opacity:1;stroke-miterlimit:10;" d="M 55.175781 142.484375 L 77.183594 152.789062 "/>
<path style="fill:none;stroke-width:1.2;stroke-linecap:butt;stroke-linejoin:miter;stroke:rgb(0%,0%,0%);stroke-opacity:1;stroke-miterlimit:10;" d="M 54.953125 148.691406 L 72.558594 156.933594 "/>
<path style=" stroke:none;fill-rule:nonzero;fill:rgb(100%,100%,100%);fill-opacity:1;" d="M 50.097656 112.773438 L 56.097656 112.773438 L 56.097656 123.773438 L 50.097656 123.773438 Z M 50.097656 112.773438 "/>
<g style="fill:rgb(20%,80%,80%);fill-opacity:1;">
  <use xlink:href="#glyph0-1" x="50.097656" y="121.436523"/>
</g>
<path style="fill:none;stroke-width:1.2;stroke-linecap:butt;stroke-linejoin:miter;stroke:rgb(0%,0%,0%);stroke-opacity:1;stroke-miterlimit:10;" d="M 77.183594 152.789062 L 87.144531 145.835938 "/>
<path style="fill:none;stroke-width:1.2;stroke-linecap:butt;stroke-linejoin:miter;stroke:rgb(0%,0%,100%);stroke-opacity:1;stroke-miterlimit:10;" d="M 87.144531 145.835938 L 97.109375 138.882812 "/>
<path style="fill:none;stroke-width:1.2;stroke-linecap:butt;stroke-linejoin:miter;stroke:rgb(0%,0%,100%);stroke-opacity:1;stroke-miterlimit:10;" d="M 97.109375 138.882812 L 97.570312 114.585938 "/>
<path style="fill:none;stroke-width:1.2;stroke-linecap:butt;stroke-linejoin:miter;stroke:rgb(0%,0%,0%);stroke-opacity:1;stroke-miterlimit:10;" d="M 120.070312 146.828125 L 108.589844 142.855469 "/>
<path style="fill:none;stroke-width:1.2;stroke-linecap:butt;stroke-linejoin:miter;stroke:rgb(0%,0%,100%);stroke-opacity:1;stroke-miterlimit:10;" d="M 108.589844 142.855469 L 97.109375 138.882812 "/>
<path style=" stroke:none;fill-rule:nonzero;fill:rgb(100%,100%,100%);fill-opacity:1;" d="M 94.109375 133.382812 L 101.109375 133.382812 L 101.109375 144.382812 L 94.109375 144.382812 Z M 94.109375 133.382812 "/>
<g style="fill:rgb(0%,0%,100%);fill-opacity:1;">
  <use xlink:href="#glyph0-2" x="94.109375" y="142.045898"/>
</g>
<path style="fill:none;stroke-width:1.2;stroke-linecap:butt;stroke-linejoin:miter;stroke:rgb(0%,0%,100%);stroke-opacity:1;stroke-miterlimit:10;" d="M 97.570312 114.585938 L 109.195312 111.054688 "/>
<path style="fill:none;stroke-width:1.2;stroke-linecap:butt;stroke-linejoin:miter;stroke:rgb(0%,0%,0%);stroke-opacity:1;stroke-miterlimit:10;" d="M 109.195312 111.054688 L 120.820312 107.519531 "/>
<path style="fill:none;stroke-width:1.2;stroke-linecap:butt;stroke-linejoin:miter;stroke:rgb(0%,0%,100%);stroke-opacity:1;stroke-miterlimit:10;" d="M 101.558594 119.351562 L 110.859375 116.523438 "/>
<path style="fill:none;stroke-width:1.2;stroke-linecap:butt;stroke-linejoin:miter;stroke:rgb(0%,0%,0%);stroke-opacity:1;stroke-miterlimit:10;" d="M 110.859375 116.523438 L 120.15625 113.695312 "/>
<path style=" stroke:none;fill-rule:nonzero;fill:rgb(100%,100%,100%);fill-opacity:1;" d="M 94.570312 109.085938 L 101.570312 109.085938 L 101.570312 120.085938 L 94.570312 120.085938 Z M 94.570312 109.085938 "/>
<g style="fill:rgb(0%,0%,100%);fill-opacity:1;">
  <use xlink:href="#glyph0-2" x="94.570312" y="117.749023"/>
</g>
<path style="fill:none;stroke-width:1.2;stroke-linecap:butt;stroke-linejoin:miter;stroke:rgb(0%,0%,0%);stroke-opacity:1;stroke-miterlimit:10;" d="M 120.820312 107.519531 L 134.726562 127.445312 "/>
<path style="fill:none;stroke-width:1.2;stroke-linecap:butt;stroke-linejoin:miter;stroke:rgb(0%,0%,0%);stroke-opacity:1;stroke-miterlimit:10;" d="M 134.726562 127.445312 L 120.070312 146.828125 "/>
<path style="fill:none;stroke-width:1.2;stroke-linecap:butt;stroke-linejoin:miter;stroke:rgb(0%,0%,0%);stroke-opacity:1;stroke-miterlimit:10;" d="M 137.820312 132.832031 L 126.097656 148.339844 "/>
<path style="fill:none;stroke-width:1.2;stroke-linecap:butt;stroke-linejoin:miter;stroke:rgb(0%,0%,0%);stroke-opacity:1;stroke-miterlimit:10;" d="M 158.839844 130.445312 L 134.726562 127.445312 "/>
<path style="fill:none;stroke-width:1.2;stroke-linecap:butt;stroke-linejoin:miter;stroke:rgb(0%,0%,0%);stroke-opacity:1;stroke-miterlimit:10;" d="M 120.070312 146.828125 L 129.53125 169.210938 "/>
<path style="fill:none;stroke-width:1.2;stroke-linecap:butt;stroke-linejoin:miter;stroke:rgb(0%,0%,0%);stroke-opacity:1;stroke-miterlimit:10;" d="M 129.53125 169.210938 L 141.585938 170.710938 "/>
<path style="fill:none;stroke-width:1.2;stroke-linecap:butt;stroke-linejoin:miter;stroke:rgb(0%,0%,100%);stroke-opacity:1;stroke-miterlimit:10;" d="M 141.585938 170.710938 L 153.644531 172.210938 "/>
<path style="fill:none;stroke-width:1.2;stroke-linecap:butt;stroke-linejoin:miter;stroke:rgb(0%,0%,0%);stroke-opacity:1;stroke-miterlimit:10;" d="M 132.648438 163.835938 L 142.292969 165.039062 "/>
<path style="fill:none;stroke-width:1.2;stroke-linecap:butt;stroke-linejoin:miter;stroke:rgb(0%,0%,100%);stroke-opacity:1;stroke-miterlimit:10;" d="M 142.292969 165.039062 L 151.9375 166.238281 "/>
<path style="fill:none;stroke-width:1.2;stroke-linecap:butt;stroke-linejoin:miter;stroke:rgb(0%,0%,100%);stroke-opacity:1;stroke-miterlimit:10;" d="M 153.644531 172.210938 L 168.296875 152.828125 "/>
<path style=" stroke:none;fill-rule:nonzero;fill:rgb(100%,100%,100%);fill-opacity:1;" d="M 150.644531 166.710938 L 157.644531 166.710938 L 157.644531 177.710938 L 150.644531 177.710938 Z M 150.644531 166.710938 "/>
<g style="fill:rgb(0%,0%,100%);fill-opacity:1;">
  <use xlink:href="#glyph0-2" x="150.644531" y="175.374023"/>
</g>
<path style="fill:none;stroke-width:1.2;stroke-linecap:butt;stroke-linejoin:miter;stroke:rgb(0%,0%,100%);stroke-opacity:1;stroke-miterlimit:10;" d="M 168.296875 152.828125 L 163.566406 141.636719 "/>
<path style="fill:none;stroke-width:1.2;stroke-linecap:butt;stroke-linejoin:miter;stroke:rgb(0%,0%,0%);stroke-opacity:1;stroke-miterlimit:10;" d="M 163.566406 141.636719 L 158.839844 130.445312 "/>
<path style="fill:none;stroke-width:1.2;stroke-linecap:butt;stroke-linejoin:miter;stroke:rgb(0%,0%,100%);stroke-opacity:1;stroke-miterlimit:10;" d="M 162.085938 152.816406 L 158.300781 143.863281 "/>
<path style="fill:none;stroke-width:1.2;stroke-linecap:butt;stroke-linejoin:miter;stroke:rgb(0%,0%,0%);stroke-opacity:1;stroke-miterlimit:10;" d="M 158.300781 143.863281 L 154.519531 134.910156 "/>
<path style=" stroke:none;fill-rule:nonzero;fill:rgb(100%,100%,100%);fill-opacity:1;" d="M 165.296875 147.328125 L 172.296875 147.328125 L 172.296875 158.328125 L 165.296875 158.328125 Z M 165.296875 147.328125 "/>
<g style="fill:rgb(0%,0%,100%);fill-opacity:1;">
  <use xlink:href="#glyph0-2" x="165.296875" y="155.991211"/>
</g>
<path style="fill:none;stroke-width:1.2;stroke-linecap:butt;stroke-linejoin:miter;stroke:rgb(0%,0%,0%);stroke-opacity:1;stroke-miterlimit:10;" d="M 158.839844 130.445312 L 166.164062 120.753906 "/>
<path style="fill:none;stroke-width:1.2;stroke-linecap:butt;stroke-linejoin:miter;stroke:rgb(100%,0%,0%);stroke-opacity:1;stroke-miterlimit:10;" d="M 166.164062 120.753906 L 173.492188 111.0625 "/>
<path style="fill:none;stroke-width:1.2;stroke-linecap:butt;stroke-linejoin:miter;stroke:rgb(100%,0%,0%);stroke-opacity:1;stroke-miterlimit:10;" d="M 173.492188 111.0625 L 185.550781 112.5625 "/>
<path style="fill:none;stroke-width:1.2;stroke-linecap:butt;stroke-linejoin:miter;stroke:rgb(0%,0%,0%);stroke-opacity:1;stroke-miterlimit:10;" d="M 185.550781 112.5625 L 197.605469 114.0625 "/>
<path style=" stroke:none;fill-rule:nonzero;fill:rgb(100%,100%,100%);fill-opacity:1;" d="M 169.492188 105.5625 L 177.492188 105.5625 L 177.492188 116.5625 L 169.492188 116.5625 Z M 169.492188 105.5625 "/>
<g style="fill:rgb(100%,0%,0%);fill-opacity:1;">
  <use xlink:href="#glyph0-3" x="169.492188" y="114.225586"/>
</g>
<path style="fill:none;stroke-width:1.2;stroke-linecap:butt;stroke-linejoin:miter;stroke:rgb(0%,0%,0%);stroke-opacity:1;stroke-miterlimit:10;" d="M 197.605469 114.0625 L 207.066406 136.445312 "/>
<path style="fill:none;stroke-width:1.2;stroke-linecap:butt;stroke-linejoin:miter;stroke:rgb(0%,0%,0%);stroke-opacity:1;stroke-miterlimit:10;" d="M 203.816406 114.074219 L 211.386719 131.980469 "/>
<path style="fill:none;stroke-width:1.2;stroke-linecap:butt;stroke-linejoin:miter;stroke:rgb(0%,0%,0%);stroke-opacity:1;stroke-miterlimit:10;" d="M 212.257812 94.679688 L 197.605469 114.0625 "/>
<path style="fill:none;stroke-width:1.2;stroke-linecap:butt;stroke-linejoin:miter;stroke:rgb(0%,0%,0%);stroke-opacity:1;stroke-miterlimit:10;" d="M 207.066406 136.445312 L 231.179688 139.441406 "/>
<path style="fill:none;stroke-width:1.2;stroke-linecap:butt;stroke-linejoin:miter;stroke:rgb(0%,0%,0%);stroke-opacity:1;stroke-miterlimit:10;" d="M 231.179688 139.441406 L 245.832031 120.058594 "/>
<path style="fill:none;stroke-width:1.2;stroke-linecap:butt;stroke-linejoin:miter;stroke:rgb(0%,0%,0%);stroke-opacity:1;stroke-miterlimit:10;" d="M 228.082031 134.058594 L 239.804688 118.550781 "/>
<path style="fill:none;stroke-width:1.2;stroke-linecap:butt;stroke-linejoin:miter;stroke:rgb(0%,0%,0%);stroke-opacity:1;stroke-miterlimit:10;" d="M 231.179688 139.441406 L 240.636719 161.824219 "/>
<path style="fill:none;stroke-width:1.2;stroke-linecap:butt;stroke-linejoin:miter;stroke:rgb(0%,0%,0%);stroke-opacity:1;stroke-miterlimit:10;" d="M 245.832031 120.058594 L 236.371094 97.679688 "/>
<path style="fill:none;stroke-width:1.2;stroke-linecap:butt;stroke-linejoin:miter;stroke:rgb(0%,0%,0%);stroke-opacity:1;stroke-miterlimit:10;" d="M 236.371094 97.679688 L 212.257812 94.679688 "/>
<path style="fill:none;stroke-width:1.2;stroke-linecap:butt;stroke-linejoin:miter;stroke:rgb(0%,0%,0%);stroke-opacity:1;stroke-miterlimit:10;" d="M 233.253906 103.050781 L 213.964844 100.652344 "/>
<path style="fill:none;stroke-width:1.2;stroke-linecap:butt;stroke-linejoin:miter;stroke:rgb(0%,0%,0%);stroke-opacity:1;stroke-miterlimit:10;" d="M 212.257812 94.679688 L 202.800781 72.296875 "/>
<path style="fill:none;stroke-width:1.2;stroke-linecap:butt;stroke-linejoin:miter;stroke:rgb(0%,0%,0%);stroke-opacity:1;stroke-miterlimit:10;" d="M 240.285156 164.660156 L 252.339844 166.160156 "/>
<path style="fill:none;stroke-width:1.2;stroke-linecap:butt;stroke-linejoin:miter;stroke:rgb(100%,0%,0%);stroke-opacity:1;stroke-miterlimit:10;" d="M 252.339844 166.160156 L 264.398438 167.660156 "/>
<path style="fill:none;stroke-width:1.2;stroke-linecap:butt;stroke-linejoin:miter;stroke:rgb(0%,0%,0%);stroke-opacity:1;stroke-miterlimit:10;" d="M 240.988281 158.988281 L 253.046875 160.488281 "/>
<path style="fill:none;stroke-width:1.2;stroke-linecap:butt;stroke-linejoin:miter;stroke:rgb(100%,0%,0%);stroke-opacity:1;stroke-miterlimit:10;" d="M 253.046875 160.488281 L 265.101562 161.988281 "/>
<path style="fill:none;stroke-width:1.2;stroke-linecap:butt;stroke-linejoin:miter;stroke:rgb(0%,0%,0%);stroke-opacity:1;stroke-miterlimit:10;" d="M 240.636719 161.824219 L 233.308594 171.515625 "/>
<path style="fill:none;stroke-width:1.2;stroke-linecap:butt;stroke-linejoin:miter;stroke:rgb(0%,0%,100%);stroke-opacity:1;stroke-miterlimit:10;" d="M 233.308594 171.515625 L 225.984375 181.207031 "/>
<path style=" stroke:none;fill-rule:nonzero;fill:rgb(100%,100%,100%);fill-opacity:1;" d="M 260.75 159.324219 L 268.75 159.324219 L 268.75 170.324219 L 260.75 170.324219 Z M 260.75 159.324219 "/>
<g style="fill:rgb(100%,0%,0%);fill-opacity:1;">
  <use xlink:href="#glyph0-3" x="260.75" y="167.987305"/>
</g>
<path style="fill:none;stroke-width:1.2;stroke-linecap:butt;stroke-linejoin:miter;stroke:rgb(0%,0%,100%);stroke-opacity:1;stroke-miterlimit:10;" d="M 225.984375 181.207031 L 230.710938 192.398438 "/>
<path style="fill:none;stroke-width:1.2;stroke-linecap:butt;stroke-linejoin:miter;stroke:rgb(0%,0%,0%);stroke-opacity:1;stroke-miterlimit:10;" d="M 230.710938 192.398438 L 235.441406 203.589844 "/>
<path style=" stroke:none;fill-rule:nonzero;fill:rgb(100%,100%,100%);fill-opacity:1;" d="M 218.984375 175.707031 L 232.984375 175.707031 L 232.984375 186.707031 L 218.984375 186.707031 Z M 218.984375 175.707031 "/>
<g style="fill:rgb(0%,0%,100%);fill-opacity:1;">
  <use xlink:href="#glyph0-2" x="218.984375" y="184.370117"/>
  <use xlink:href="#glyph0-4" x="225.961914" y="184.370117"/>
</g>
<path style="fill:none;stroke-width:1.2;stroke-linecap:butt;stroke-linejoin:miter;stroke:rgb(0%,0%,0%);stroke-opacity:1;stroke-miterlimit:10;" d="M 235.441406 203.589844 L 254.824219 218.246094 "/>
<path style="fill:none;stroke-width:1.2;stroke-linecap:butt;stroke-linejoin:miter;stroke:rgb(0%,0%,0%);stroke-opacity:1;stroke-miterlimit:10;" d="M 232.441406 227.703125 L 235.441406 203.589844 "/>
<path style="fill:none;stroke-width:1.2;stroke-linecap:butt;stroke-linejoin:miter;stroke:rgb(0%,0%,0%);stroke-opacity:1;stroke-miterlimit:10;" d="M 254.824219 218.246094 L 232.441406 227.703125 "/>
</g>
</svg>

<svg xmlns="http://www.w3.org/2000/svg" xmlns:xlink="http://www.w3.org/1999/xlink" width="300pt" height="300pt" viewBox="0 0 300 300"><defs><symbol overflow="visible"><path d="M.453 1.594v-7.938h4.5v7.938zm.5-.5h3.5v-6.938h-3.5zm0 0"/></symbol><symbol overflow="visible" id="a"><path d="M.89-6.563h3.766v.75h-2.89v1.938h2.61v.734h-2.61V0H.89zm0 0"/></symbol><symbol overflow="visible" id="b"><path d="M.89-6.563H2.08l2.906 5.485v-5.484h.86V0H4.656L1.75-5.484V0H.89zm0 0"/></symbol><symbol overflow="visible" id="c"><path d="M3.547-5.953c-.65 0-1.164.242-1.547.72-.375.48-.563 1.13-.563 1.952 0 .835.188 1.49.563 1.967.383.48.898.72 1.547.72.644 0 1.156-.24 1.53-.72.376-.476.564-1.132.564-1.968 0-.822-.187-1.474-.562-1.954-.375-.477-.887-.72-1.53-.72zm0-.734c.914 0 1.648.312 2.203.937.55.617.828 1.438.828 2.47 0 1.042-.277 1.87-.828 2.483-.555.617-1.29.922-2.203.922-.93 0-1.668-.305-2.22-.922C.774-1.41.5-2.237.5-3.28c0-1.033.273-1.853.828-2.47.55-.625 1.29-.938 2.22-.938zm0 0"/></symbol><symbol overflow="visible" id="d"><path d="M.89-6.563h.876v2.688H5v-2.688h.89V0H5v-3.125H1.766V0H.89zm0 0"/></symbol></defs><g><path fill="#fff" d="M0 0h300v300H0z"/><path d="M101.27 187.3l-11.004-5.152" stroke-width="1.2" stroke="#3cc" stroke-miterlimit="10" fill="none"/><path d="M90.266 182.148l-11.004-5.152" stroke-width="1.2" stroke="#000" stroke-miterlimit="10" fill="none"/><path d="M98.27 181.8h6v11h-6zm0 0" fill="#fff"/><use xlink:href="#a" x="98.27" y="190.464" fill="#3cc"/><path d="M79.262 176.996l-19.926 13.906M73.996 173.7l-15.94 11.124M77.184 152.79l2.078 24.206M59.336 190.902l-22.008-10.3M37.328 180.602l-2.078-24.21M42.816 177.688l-1.66-19.368M35.25 156.39l19.926-13.906M55.176 142.484l-1.04-12.105" stroke-width="1.2" stroke="#000" stroke-miterlimit="10" fill="none"/><path d="M54.137 130.38l-1.04-12.107" stroke-width="1.2" stroke="#3cc" stroke-miterlimit="10" fill="none"/><path d="M55.176 142.484l22.008 10.305M54.953 148.69l17.606 8.244" stroke-width="1.2" stroke="#000" stroke-miterlimit="10" fill="none"/><path d="M50.098 112.773h6v11h-6zm0 0" fill="#fff"/><use xlink:href="#a" x="50.098" y="121.437" fill="#3cc"/><path d="M77.184 152.79l9.96-6.954" stroke-width="1.2" stroke="#000" stroke-miterlimit="10" fill="none"/><path d="M87.145 145.836l9.964-6.953M97.11 138.883l.46-24.297" stroke-width="1.2" stroke="#00f" stroke-miterlimit="10" fill="none"/><path d="M120.07 146.828l-11.48-3.973" stroke-width="1.2" stroke="#000" stroke-miterlimit="10" fill="none"/><path d="M108.59 142.855l-11.48-3.972" stroke-width="1.2" stroke="#00f" stroke-miterlimit="10" fill="none"/><path d="M94.11 133.383h7v11h-7zm0 0" fill="#fff"/><use xlink:href="#b" x="94.109" y="142.046" fill="#00f"/><path d="M97.57 114.586l11.625-3.53" stroke-width="1.2" stroke="#00f" stroke-miterlimit="10" fill="none"/><path d="M109.195 111.055l11.625-3.535" stroke-width="1.2" stroke="#000" stroke-miterlimit="10" fill="none"/><path d="M101.56 119.352l9.3-2.83" stroke-width="1.2" stroke="#00f" stroke-miterlimit="10" fill="none"/><path d="M110.86 116.523l9.296-2.828" stroke-width="1.2" stroke="#000" stroke-miterlimit="10" fill="none"/><path d="M94.57 109.086h7v11h-7zm0 0" fill="#fff"/><use xlink:href="#b" x="94.57" y="117.749" fill="#00f"/><path d="M120.82 107.52l13.907 19.925M134.727 127.445l-14.657 19.383M137.82 132.832l-11.722 15.508M158.84 130.445l-24.113-3M120.07 146.828l9.46 22.383M129.53 169.21l12.056 1.5" stroke-width="1.2" stroke="#000" stroke-miterlimit="10" fill="none"/><path d="M141.586 170.71l12.06 1.5" stroke-width="1.2" stroke="#00f" stroke-miterlimit="10" fill="none"/><path d="M132.648 163.836l9.645 1.203" stroke-width="1.2" stroke="#000" stroke-miterlimit="10" fill="none"/><path d="M142.293 165.04l9.644 1.198M153.645 172.21l14.652-19.382" stroke-width="1.2" stroke="#00f" stroke-miterlimit="10" fill="none"/><path d="M150.645 166.71h7v11h-7zm0 0" fill="#fff"/><use xlink:href="#b" x="150.645" y="175.374" fill="#00f"/><path d="M168.297 152.828l-4.73-11.19" stroke-width="1.2" stroke="#00f" stroke-miterlimit="10" fill="none"/><path d="M163.566 141.637l-4.726-11.192" stroke-width="1.2" stroke="#000" stroke-miterlimit="10" fill="none"/><path d="M162.086 152.816l-3.785-8.953" stroke-width="1.2" stroke="#00f" stroke-miterlimit="10" fill="none"/><path d="M158.3 143.863l-3.78-8.953" stroke-width="1.2" stroke="#000" stroke-miterlimit="10" fill="none"/><path d="M165.297 147.328h7v11h-7zm0 0" fill="#fff"/><use xlink:href="#b" x="165.297" y="155.991" fill="#00f"/><path d="M158.84 130.445l7.324-9.69" stroke-width="1.2" stroke="#000" stroke-miterlimit="10" fill="none"/><path d="M166.164 120.754l7.328-9.692M173.492 111.063l12.06 1.5" stroke-width="1.2" stroke="#f00" stroke-miterlimit="10" fill="none"/><path d="M185.55 112.563l12.055 1.5" stroke-width="1.2" stroke="#000" stroke-miterlimit="10" fill="none"/><path d="M169.492 105.563h8v11h-8zm0 0" fill="#fff"/><use xlink:href="#c" x="169.492" y="114.226" fill="#f00"/><path d="M197.605 114.063l9.46 22.382M203.816 114.074l7.57 17.906M212.258 94.68l-14.653 19.382M207.066 136.445l24.114 2.996M231.18 139.44l14.652-19.38M228.082 134.06l11.723-15.51M231.18 139.44l9.457 22.384M245.832 120.06l-9.46-22.38M236.37 97.68l-24.112-3M233.254 103.05l-19.29-2.398M212.258 94.68L202.8 72.297M240.285 164.66l12.055 1.5" stroke-width="1.2" stroke="#000" stroke-miterlimit="10" fill="none"/><path d="M252.34 166.16l12.058 1.5" stroke-width="1.2" stroke="#f00" stroke-miterlimit="10" fill="none"/><path d="M240.988 158.988l12.06 1.5" stroke-width="1.2" stroke="#000" stroke-miterlimit="10" fill="none"/><path d="M253.047 160.488l12.055 1.5" stroke-width="1.2" stroke="#f00" stroke-miterlimit="10" fill="none"/><path d="M240.637 161.824l-7.328 9.692" stroke-width="1.2" stroke="#000" stroke-miterlimit="10" fill="none"/><path d="M233.31 171.516l-7.326 9.69" stroke-width="1.2" stroke="#00f" stroke-miterlimit="10" fill="none"/><path d="M260.75 159.324h8v11h-8zm0 0" fill="#fff"/><use xlink:href="#c" x="260.75" y="167.987" fill="#f00"/><path d="M225.984 181.207l4.727 11.19" stroke-width="1.2" stroke="#00f" stroke-miterlimit="10" fill="none"/><path d="M230.71 192.398l4.73 11.192" stroke-width="1.2" stroke="#000" stroke-miterlimit="10" fill="none"/><path d="M218.984 175.707h14v11h-14zm0 0" fill="#fff"/><g fill="#00f"><use xlink:href="#b" x="218.984" y="184.37"/><use xlink:href="#d" x="225.962" y="184.37"/></g><path d="M235.44 203.59l19.384 14.656M232.44 227.703l3-24.113M254.824 218.246l-22.383 9.457" stroke-width="1.2" stroke="#000" stroke-miterlimit="10" fill="none"/></g></svg>
